dist/svgs/devui-icons/op/op-task.svg

<?xml version="1.0" encoding="UTF-8"?>
<svg width="16px" height="16px" viewBox="0 0 16 16" version="1.1" xmlns="http://www.w3.org/2000/svg" xmlns:xlink="http://www.w3.org/1999/xlink">
    <title>任务</title>
    <desc>Created with Sketch.</desc>
    <g id="任务" stroke="none" stroke-width="1" fill="none" fill-rule="evenodd">
        <path d="M2,1.00986901 L14,1.00986901 C14.5522847,1.00986901 15,1.45758426 15,2.00986901 L15,14.0206692 C15,14.5729539 14.5522847,15.0206692 14,15.0206692 L2,15.0206692 C1.44771525,15.0206692 1,14.5729539 1,14.0206692 L1,2.00986901 C1,1.45758426 1.44771525,1.00986901 2,1.00986901 Z M9,5.01739036 L9,6.01739036 L12,6.01739036 L12,5.01739036 L9,5.01739036 Z M9,10.0173904 L9,11.0173904 L12,11.0173904 L12,10.0173904 L9,10.0173904 Z M5.5,7.50986901 C6.6045695,7.50986901 7.5,6.61443851 7.5,5.50986901 C7.5,4.40529951 6.6045695,3.50986901 5.5,3.50986901 C4.3954305,3.50986901 3.5,4.40529951 3.5,5.50986901 C3.5,6.61443851 4.3954305,7.50986901 5.5,7.50986901 Z M5.5,6.50986901 C4.94771525,6.50986901 4.5,6.06215376 4.5,5.50986901 C4.5,4.95758426 4.94771525,4.50986901 5.5,4.50986901 C6.05228475,4.50986901 6.5,4.95758426 6.5,5.50986901 C6.5,6.06215376 6.05228475,6.50986901 5.5,6.50986901 Z M5.5,12.509869 C6.6045695,12.509869 7.5,11.6144385 7.5,10.509869 C7.5,9.40529951 6.6045695,8.50986901 5.5,8.50986901 C4.3954305,8.50986901 3.5,9.40529951 3.5,10.509869 C3.5,11.6144385 4.3954305,12.509869 5.5,12.509869 Z M5.5,11.509869 C4.94771525,11.509869 4.5,11.0621538 4.5,10.509869 C4.5,9.95758426 4.94771525,9.50986901 5.5,9.50986901 C6.05228475,9.50986901 6.5,9.95758426 6.5,10.509869 C6.5,11.0621538 6.05228475,11.509869 5.5,11.509869 Z" id="形状结合" fill="#293040"></path>
    </g>
</svg>

<svg xmlns="http://www.w3.org/2000/svg" viewBox="0 0 16 16"><path fill-rule="evenodd" d="M2 1.01h12a1 1 0 011 1v12.01a1 1 0 01-1 1H2a1 1 0 01-1-1V2.01a1 1 0 011-1zm7 4.007v1h3v-1H9zm0 5v1h3v-1H9zM5.5 7.51a2 2 0 100-4 2 2 0 000 4zm0-1a1 1 0 110-2 1 1 0 010 2zm0 6a2 2 0 100-4 2 2 0 000 4zm0-1a1 1 0 110-2 1 1 0 010 2z"/></svg>
